P3
# tb_nn_rgb output
16 8
255
0 0 0
0 0 0
7 7 7
14 14 14
21 21 21
28 28 28
35 35 35
42 42 42
49 49 49
56 56 56
63 63 63
70 70 70
77 77 77
84 84 84
91 91 91
98 98 98
0 0 0
22 22 22
29 29 29
36 36 36
43 43 43
50 50 50
57 57 57
64 64 64
71 71 71
78 78 78
85 85 85
92 92 92
99 99 99
106 106 106
113 113 113
88 88 88
0 0 0
44 44 44
51 51 51
58 58 58
65 65 65
72 72 72
79 79 79
86 86 86
93 93 93
100 100 100
107 107 107
114 114 114
121 121 121
96 96 96
103 103 103
110 110 110
0 0 0
66 66 66
73 73 73
80 80 80
87 87 87
94 94 94
101 101 101
108 108 108
115 115 115
122 122 122
129 129 129
104 104 104
111 111 111
118 118 118
125 125 125
132 132 132
0 0 0
88 88 88
95 95 95
102 102 102
109 109 109
116 116 116
123 123 123
130 130 130
137 137 137
112 112 112
119 119 119
126 126 126
133 133 133
140 140 140
147 147 147
154 154 154
0 0 0
110 110 110
117 117 117
124 124 124
131 131 131
138 138 138
145 145 145
120 120 120
127 127 127
134 134 134
141 141 141
148 148 148
155 155 155
162 162 162
169 169 169
176 176 176
0 0 0
132 132 132
139 139 139
146 146 146
153 153 153
128 128 128
135 135 135
142 142 142
149 149 149
156 156 156
163 163 163
170 170 170
177 177 177
184 184 184
191 191 191
198 198 198
0 0 0
154 154 154
161 161 161
136 136 136
143 143 143
150 150 150
157 157 157
164 164 164
171 171 171
178 178 178
185 185 185
192 192 192
199 199 199
206 206 206
213 213 213
220 220 220
